src/pos-icons/message-reply-text.svg

<svg height="24" viewBox="0 0 24 24" width="24" xmlns="http://www.w3.org/2000/svg"><path d="m18 8h-12v-2h12zm0 3h-12v-2h12zm0 3h-12v-2h12zm4-10a2 2 0 0 0 -2-2h-16a2 2 0 0 0 -2 2v12a2 2 0 0 0 2 2h14l4 4z"/></svg>

<?xml version="1.0" encoding="UTF-8"?><!DOCTYPE svg PUBLIC "-//W3C//DTD SVG 1.1//EN" "http://www.w3.org/Graphics/SVG/1.1/DTD/svg11.dtd"><svg xmlns="http://www.w3.org/2000/svg" xmlns:xlink="http://www.w3.org/1999/xlink" version="1.1" id="mdi-message-reply-text" width="24" height="24" viewBox="0 0 24 24"><path d="M18,8H6V6H18V8M18,11H6V9H18V11M18,14H6V12H18V14M22,4A2,2 0 0,0 20,2H4A2,2 0 0,0 2,4V16A2,2 0 0,0 4,18H18L22,22V4Z" /></svg>
